public/images/hashed/a1f897c7dd8e9636613daa24c84db3ac.svg

<?xml version="1.0" encoding="UTF-8"?>
<svg width="80px" height="80px" viewBox="0 0 80 80" version="1.1" xmlns="http://www.w3.org/2000/svg" xmlns:xlink="http://www.w3.org/1999/xlink">
    <!-- Generator: Sketch 64 (93537) - https://sketch.com -->
    <title>Icon-Architecture/64/Arch_AWS-IoT-Analytics_64</title>
    <desc>Created with Sketch.</desc>
    <defs>
        <linearGradient x1="0%" y1="100%" x2="100%" y2="0%" id="linearGradient-1">
            <stop stop-color="#1B660F" offset="0%"></stop>
            <stop stop-color="#6CAE3E" offset="100%"></stop>
        </linearGradient>
    </defs>
    <g id="Icon-Architecture/64/Arch_AWS-IoT-Analytics_64" stroke="none" stroke-width="1" fill="none" fill-rule="evenodd">
        <g id="Icon-Architecture-BG/64/Internet-of-Things" fill="url(#linearGradient-1)">
            <rect id="Rectangle" x="0" y="0" width="80" height="80"></rect>
        </g>
        <path d="M59.4955965,44.0697674 C57.5640512,44.0697674 55.9927942,42.4959904 55.9927942,40.5613472 C55.9927942,38.6267041 57.5640512,37.052927 59.4955965,37.052927 C61.4271417,37.052927 62.9983987,38.6267041 62.9983987,40.5613472 C62.9983987,42.4959904 61.4271417,44.0697674 59.4955965,44.0697674 M51.2610088,57.1040497 C47.4689752,60.9031676 42.4309448,62.9951885 37.0776621,62.9951885 C33.2886309,62.9951885 29.6297038,61.9276263 26.4491593,59.925822 C26.7023619,59.382518 26.8755004,58.7951083 26.9405524,58.1736167 L55.0130104,43.75 C55.5194155,44.4617081 56.1879504,45.0471131 56.9665733,45.452085 C56.4041233,49.8386127 54.3985188,53.9605052 51.2610088,57.1040497 M21.4651721,61.1106656 C19.5336269,61.1106656 17.9623699,59.5368885 17.9623699,57.6022454 C17.9623699,55.6676022 19.5336269,54.0938252 21.4651721,54.0938252 C23.3967174,54.0938252 24.9679744,55.6676022 24.9679744,57.6022454 C24.9679744,59.5368885 23.3967174,61.1106656 21.4651721,61.1106656 M17.0016013,42.8869286 C17.0016013,37.5240577 19.0902722,32.4789495 22.8833066,28.6798316 C26.0318255,25.526263 30.1651321,23.5164395 34.5576461,22.9661187 C34.9469576,23.7469928 35.5144115,24.4206095 36.2089672,24.9368484 L22.2698159,52.15417 C22.0066053,52.1160786 21.7383907,52.0890136 21.4651721,52.0890136 C20.7516013,52.0890136 20.070056,52.2303528 19.4435548,52.4789495 C17.846277,49.5519246 17.0016013,46.2630313 17.0016013,42.8869286 M39.4795837,17.0048115 C41.4111289,17.0048115 42.9823859,18.5785886 42.9823859,20.5132318 C42.9823859,22.4478749 41.4111289,24.021652 39.4795837,24.021652 C37.5480384,24.021652 35.9767814,22.4478749 35.9767814,20.5132318 C35.9767814,18.5785886 37.5480384,17.0048115 39.4795837,17.0048115 M50.5324259,27.9931836 L25.0970777,53.4703288 C24.8158527,53.2217322 24.5096077,53.0012029 24.1813451,52.813753 L38.0054043,25.8199679 C38.4757806,25.9512831 38.9681745,26.0264635 39.4795837,26.0264635 C41.2169736,26.0264635 42.7672138,25.2135124 43.7770216,23.9494787 C46.2560048,24.8265838 48.5608487,26.2058941 50.5324259,27.9931836 M57.4939952,19.0096231 C59.4255404,19.0096231 60.9967974,20.5834002 60.9967974,22.5180433 C60.9967974,24.4526864 59.4255404,26.0264635 57.4939952,26.0264635 C55.56245,26.0264635 53.991193,24.4526864 53.991193,22.5180433 C53.991193,20.5834002 55.56245,19.0096231 57.4939952,19.0096231 M53.991193,40.5613472 C53.991193,41.0354852 54.0572458,41.4925822 54.1703363,41.9306335 L26.7373899,56.0254611 C26.636309,55.6876504 26.5032026,55.3638733 26.3430745,55.0571371 L51.9465572,29.409583 C53.7560048,31.4113873 55.1461169,33.7590217 56.0248199,36.287089 C54.7848279,37.2995188 53.991193,38.8382117 53.991193,40.5613472 M59.4955965,35.0481155 C58.9071257,35.0481155 58.3426741,35.143344 57.8092474,35.3147554 C56.8304644,32.6273055 55.3152522,30.138332 53.3757006,28.0072173 L54.3694956,27.0519246 C55.2582066,27.6684042 56.3340673,28.0312751 57.4939952,28.0312751 C60.5284227,28.0312751 62.9983987,25.55834 62.9983987,22.5180433 C62.9983987,19.4777466 60.5284227,17.0048115 57.4939952,17.0048115 C54.4595677,17.0048115 51.9895917,19.4777466 51.9895917,22.5180433 C51.9895917,23.6728148 52.3468775,24.7453889 52.9563651,25.632518 L51.9625701,26.5888132 C49.8508807,24.6551724 47.3889111,23.1405373 44.733787,22.1571772 C44.8959167,21.637931 44.9839872,21.0856055 44.9839872,20.5132318 C44.9839872,17.472935 42.5140112,15 39.4795837,15 C36.4451561,15 33.9751801,17.472935 33.9751801,20.5132318 C33.9751801,20.6856455 33.9851882,20.8550521 34.0002002,21.0234563 C29.2844275,21.6840417 24.8568855,23.8682839 21.4681745,27.2624298 C17.2968375,31.4394547 15,36.9887731 15,42.8869286 C15,46.6409383 15.9517614,50.2977145 17.7502002,53.5465116 C16.6533227,54.5549318 15.9607686,55.9973937 15.9607686,57.6022454 C15.9607686,60.6425421 18.4307446,63.1154771 21.4651721,63.1154771 C22.9483587,63.1154771 24.2954363,62.5210505 25.286229,61.5617482 C28.8090472,63.8051323 32.871297,65 37.0776621,65 C42.9663731,65 48.5068054,62.6984763 52.6771417,58.5214515 C56.0478383,55.1453488 58.2245797,50.7397755 58.9011209,46.0414996 C59.0972778,46.0625501 59.2944355,46.074579 59.4955965,46.074579 C62.530024,46.074579 65,43.6016439 65,40.5613472 C65,37.5210505 62.530024,35.0481155 59.4955965,35.0481155" id="AWS-IoT-Analytics-_Icon_64_Squid" fill="#FFFFFF"></path>
    </g>
</svg>

<svg xmlns="http://www.w3.org/2000/svg" width="80" height="80"><defs><linearGradient id="a" x1="0%" x2="100%" y1="100%" y2="0%"><stop offset="0%" stop-color="#1B660F"/><stop offset="100%" stop-color="#6CAE3E"/></linearGradient></defs><g fill="none" fill-rule="evenodd"><path fill="url(#a)" d="M0 0h80v80H0z"/><path fill="#FFF" d="M59.496 44.07a3.51 3.51 0 0 1 0-7.017 3.51 3.51 0 0 1 0 7.017M51.26 57.104c-3.792 3.8-8.83 5.891-14.183 5.891a19.892 19.892 0 0 1-10.629-3.07c.253-.542.427-1.13.492-1.751L55.013 43.75a5.534 5.534 0 0 0 1.954 1.702 20.159 20.159 0 0 1-5.706 11.652m-29.796 4.007a3.51 3.51 0 0 1 0-7.017 3.51 3.51 0 0 1 0 7.017m-4.463-18.224a19.979 19.979 0 0 1 5.881-14.207 20.06 20.06 0 0 1 11.675-5.714c.389.781.956 1.455 1.651 1.97l-13.94 27.218a5.61 5.61 0 0 0-.804-.065 5.47 5.47 0 0 0-2.021.39 19.999 19.999 0 0 1-2.442-9.592M39.48 17.005a3.51 3.51 0 0 1 0 7.017 3.51 3.51 0 0 1 0-7.017m11.052 10.988L25.097 53.47a5.504 5.504 0 0 0-.916-.656L38.005 25.82c.47.131.963.206 1.475.206a5.492 5.492 0 0 0 4.297-2.077 20.033 20.033 0 0 1 6.755 4.044m6.962-8.983a3.51 3.51 0 0 1 0 7.016 3.51 3.51 0 0 1 0-7.016M53.991 40.56c0 .474.066.932.18 1.37L26.736 56.025a5.5 5.5 0 0 0-.394-.968L51.947 29.41c1.809 2.001 3.2 4.349 4.078 6.877a5.506 5.506 0 0 0-2.034 4.274m5.505-5.513c-.589 0-1.153.095-1.687.267a22.147 22.147 0 0 0-4.433-7.308l.993-.955c.89.616 1.965.98 3.125.98 3.034 0 5.504-2.474 5.504-5.514s-2.47-5.513-5.504-5.513c-3.034 0-5.504 2.473-5.504 5.513 0 1.155.357 2.227.966 3.115l-.993.956a22.107 22.107 0 0 0-7.23-4.432c.163-.52.251-1.071.251-1.644 0-3.04-2.47-5.513-5.504-5.513-3.035 0-5.505 2.473-5.505 5.513 0 .173.01.342.025.51a22.069 22.069 0 0 0-12.532 6.24A21.97 21.97 0 0 0 15 42.886c0 3.754.952 7.41 2.75 10.66a5.496 5.496 0 0 0-1.79 4.055c0 3.04 2.47 5.513 5.505 5.513a5.48 5.48 0 0 0 3.821-1.553A21.883 21.883 0 0 0 37.078 65c5.888 0 11.429-2.302 15.6-6.479a22.165 22.165 0 0 0 6.223-12.48c.196.022.393.034.595.034 3.034 0 5.504-2.473 5.504-5.514 0-3.04-2.47-5.513-5.504-5.513"/></g></svg>
